picto/inductive-coupling.svg

<svg class="color-immutable" width="24" height="24" viewBox="0 0 24 24" fill="none" xmlns="http://www.w3.org/2000/svg"><path d="M0 22.5V1.5C0 0.675 0.675 0 1.5 0H22.5C23.325 0 24 0.675 24 1.5V22.5C24 23.325 23.325 24 22.5 24H1.5C0.675 24 0 23.325 0 22.5Z" fill="#2D327D"/><path d="M15.918 6.42601C17.594 8.59301 17.196 11.707 15.03 13.383C14.205 14.021 13.739 15.02 13.78 16.064C13.81 16.827 13.63 17.583 13.26 18.252C13.065 18.604 12.787 18.901 12.448 19.118C11.324 19.839 9.82899 19.511 9.10799 18.387C8.96499 18.165 9.02999 17.87 9.25199 17.727C9.47399 17.585 9.77099 17.65 9.91199 17.872C10.348 18.551 11.252 18.749 11.932 18.314C12.136 18.183 12.304 18.002 12.422 17.791C12.707 17.275 12.846 16.691 12.822 16.102C12.769 14.75 13.374 13.457 14.443 12.629C16.193 11.276 16.513 8.76101 15.16 7.01301C13.807 5.26501 11.293 4.94301 9.54499 6.29601C8.63499 6.99901 8.06999 8.06301 7.99999 9.21401C7.98399 9.47701 7.75699 9.67801 7.49299 9.66101C7.22999 9.64601 7.02899 9.41901 7.04599 9.15601C7.13299 7.73001 7.83099 6.41101 8.96099 5.53701C11.127 3.86101 14.243 4.25901 15.918 6.42601Z" fill="white"/><path d="M14.648 7.409C15.781 8.874 15.512 10.979 14.047 12.112C13.952 12.185 13.86 12.263 13.772 12.344C13.613 12.486 13.369 12.473 13.226 12.314C13.083 12.156 13.096 11.911 13.254 11.769C13.358 11.676 13.464 11.586 13.574 11.501C14.702 10.629 14.909 9.008 14.037 7.881C13.165 6.754 11.544 6.547 10.416 7.419C10.142 7.632 9.913 7.898 9.743 8.2C9.639 8.387 9.404 8.453 9.218 8.349C9.032 8.245 8.965 8.01 9.069 7.823C9.289 7.43 9.586 7.083 9.943 6.808C11.409 5.674 13.515 5.944 14.648 7.409Z" fill="white"/><path d="M17.587 16.499H16.484V15.819H19.5V16.499H18.397V19.5H17.588V16.499H17.587Z" fill="white"/><path d="M9.814 14.185C8.739 13.67 7.873 12.803 7.357 11.728L3 16.084V21L9.814 14.185Z" fill="white"/><path d="M15.21 3.874C16.24 4.451 17.091 5.301 17.669 6.331L19.287 4.713L21 3H16.084L15.21 3.874Z" fill="white"/></svg>

<svg class="color-immutable" width="24" height="24" viewBox="0 0 24 24" fill="none" xmlns="http://www.w3.org/2000/svg"><g clip-path="url(#a)"><path d="M0 22.5v-21C0 .675.675 0 1.5 0h21c.825 0 1.5.675 1.5 1.5v21c0 .825-.675 1.5-1.5 1.5h-21C.675 24 0 23.325 0 22.5Z" fill="#2D327D"/><path d="M15.918 6.426a4.96 4.96 0 0 1-.888 6.957 3.229 3.229 0 0 0-1.25 2.681 4.18 4.18 0 0 1-.52 2.188 2.417 2.417 0 0 1-4.152.135.477.477 0 1 1 .804-.515 1.464 1.464 0 0 0 2.51-.081c.285-.516.424-1.1.4-1.689a4.186 4.186 0 0 1 1.621-3.473A4.003 4.003 0 1 0 8 9.214a.477.477 0 0 1-.954-.058 4.959 4.959 0 0 1 8.872-2.73Z" fill="#fff"/><path d="M14.648 7.409a3.352 3.352 0 0 1-.601 4.703 4.062 4.062 0 0 0-.275.232.387.387 0 0 1-.518-.575c.104-.093.21-.183.32-.268A2.58 2.58 0 1 0 9.743 8.2a.387.387 0 0 1-.674-.377 3.353 3.353 0 0 1 5.579-.414ZM17.587 16.499h-1.103v-.68H19.5v.68h-1.103V19.5h-.809v-3.001h-.001ZM9.814 14.185a5.235 5.235 0 0 1-2.457-2.457L3 16.084V21l6.814-6.815ZM15.21 3.874a6.414 6.414 0 0 1 2.459 2.457l1.618-1.618L21 3h-4.916l-.874.874Z" fill="#fff"/></g><defs><clipPath id="a"><path fill="#fff" d="M0 0h24v24H0z"/></clipPath></defs></svg>
